X: 6
T: Willie Coleman's
R: jig
M: 6/8
L: 1/8
K: Gmaj
B3 AGE|GED GBd|edB dgb|age dBA|B3 AGE|GED GBd|edB dBA|BGG G3:|
|:g3 edB|dgb age|g3 edB|GBd e2d|g3 edB|dgb age|d3 gdB|AGE G3:|


Tune 476	Setting 11345

